webtronics/symbols/XOR.svg

<?xml version="1.0" encoding="UTF-8" standalone="no"?>
<!-- Created with Inkscape (http://www.inkscape.org/) -->

<svg
   xmlns="http://www.w3.org/2000/svg"
   version="1.0"
   width="60.318184"
   height="40.902729"
   id="svg2168">
  <defs
     id="defs2170" />
  <g connects="0,10;0,30;60,20"
     id="G">
    <path
       d="m 10.863637,0.66290618 9.272727,-0.0909091 c 1.054535,0.0492046 13.887589,1.54738812 20.909091,8.46350252 5.021048,4.9456854 7.84074,9.5075004 8.373838,11.0957734 0.910212,2.711815 -0.233035,-1.390855 -0.0102,0.02653 0.269718,1.7156 -2.93611,8.017301 -9.474468,14.222668 -7.264999,6.895002 -19.796886,6.019318 -19.798259,6.00971 l -9.272727,-0.272727 c 4.003203,-12.651115 5.429849,-25.624299 0,-39.45454482 z"
       id="path2189"
       style="fill:none;stroke:#000000;stroke-width:2px;stroke-linecap:butt;stroke-linejoin:miter;stroke-opacity:1" />
    <path
       d="m 49.818182,19.935633 c 7.395532,0.238953 7.086384,0.02469 10,0"
       id="path2191"
       style="fill:none;stroke:#000000;stroke-width:2px;stroke-linecap:butt;stroke-linejoin:miter;stroke-opacity:1" />
    <path
       d="M 13.388164,10.102383 0.5,10.435633"
       id="path2193"
       style="fill:none;stroke:#000000;stroke-width:2px;stroke-linecap:butt;stroke-linejoin:miter;stroke-opacity:1" />
    <path
       d="m 12.928763,30.299269 -12.110581,0"
       id="path2195"
       style="fill:none;stroke:#000000;stroke-width:2px;stroke-linecap:butt;stroke-linejoin:miter;stroke-opacity:1" />
    <path
       d="M 8.5534073,0.24627359 C 12.833902,15.790562 11.722718,28.63901 8.3312409,40.347313"
       id="path3223"
       style="fill:none;stroke:#000000;stroke-width:2px;stroke-linecap:butt;stroke-linejoin:miter;stroke-opacity:1" />
  </g>
</svg>

<?xml version="1.0" encoding="UTF-8" standalone="no"?>
<!-- Created with Inkscape (http://www.inkscape.org/) -->
<svg
   xmlns:dc="http://purl.org/dc/elements/1.1/"
   xmlns:cc="http://creativecommons.org/ns#"
   xmlns:rdf="http://www.w3.org/1999/02/22-rdf-syntax-ns#"
   xmlns:svg="http://www.w3.org/2000/svg"
   xmlns="http://www.w3.org/2000/svg"
   xmlns:sodipodi="http://sodipodi.sourceforge.net/DTD/sodipodi-0.dtd"
   xmlns:inkscape="http://www.inkscape.org/namespaces/inkscape"
   version="1.0"
   width="60.318184"
   height="40.902729"
   id="svg2168"
   sodipodi:version="0.32"
   inkscape:version="0.46"
   sodipodi:docname="XOR.svg"
   inkscape:output_extension="org.inkscape.output.svg.inkscape">
  <metadata
     id="metadata10">
    <rdf:RDF>
      <cc:Work
         rdf:about="">
        <dc:format>image/svg+xml</dc:format>
        <dc:type
           rdf:resource="http://purl.org/dc/dcmitype/StillImage" />
      </cc:Work>
    </rdf:RDF>
  </metadata>
  <sodipodi:namedview
     inkscape:window-height="682"
     inkscape:window-width="685"
     inkscape:pageshadow="2"
     inkscape:pageopacity="0.0"
     guidetolerance="10.0"
     gridtolerance="10.0"
     objecttolerance="10.0"
     borderopacity="1.0"
     bordercolor="#666666"
     pagecolor="#ffffff"
     id="base"
     showgrid="false"
     inkscape:zoom="9.0022604"
     inkscape:cx="54.808104"
     inkscape:cy="20.451365"
     inkscape:window-x="0"
     inkscape:window-y="26"
     inkscape:current-layer="G" />
  <defs
     id="defs2170">
    <inkscape:perspective
       sodipodi:type="inkscape:persp3d"
       inkscape:vp_x="0 : 20.451365 : 1"
       inkscape:vp_y="0 : 1000 : 0"
       inkscape:vp_z="60.318184 : 20.451365 : 1"
       inkscape:persp3d-origin="30.159092 : 13.634243 : 1"
       id="perspective12" />
  </defs>
  <g
     id="G">
    <path
       d="M 10.863637,0.66290618 L 20.136364,0.57199708 C 21.190899,0.62120167 34.023953,2.1193852 41.045455,9.0354996 C 46.066503,13.981185 48.886195,18.543 49.419293,20.131273 C 50.329505,22.843088 49.186258,18.740418 49.409091,20.1578 C 49.678809,21.8734 46.472981,28.175101 39.934623,34.380468 C 32.669624,41.27547 20.137737,40.399786 20.136364,40.390178 L 10.863637,40.117451 C 14.86684,27.466336 16.293486,14.493152 10.863637,0.66290618 z"
       id="path2189"
       style="fill:none;fill-rule:evenodd;stroke:#000000;stroke-width:1px;stroke-linecap:butt;stroke-linejoin:miter;stroke-opacity:1"
       sodipodi:nodetypes="ccssssccc" />
    <path
       d="M 49.818182,19.935633 C 57.213714,20.174586 56.904566,19.960322 59.818182,19.935633"
       id="path2191"
       style="fill:none;fill-rule:evenodd;stroke:#000000;stroke-width:1px;stroke-linecap:butt;stroke-linejoin:miter;stroke-opacity:1"
       sodipodi:nodetypes="cc" />
    <path
       d="M 13.388164,10.102383 L 0.5,10.435633"
       id="path2193"
       style="fill:none;fill-rule:evenodd;stroke:#000000;stroke-width:1px;stroke-linecap:butt;stroke-linejoin:miter;stroke-opacity:1"
       sodipodi:nodetypes="cc" />
    <path
       d="M 12.928763,30.299269 L 0.818182,30.299269"
       id="path2195"
       style="fill:none;fill-rule:evenodd;stroke:#000000;stroke-width:1px;stroke-linecap:butt;stroke-linejoin:miter;stroke-opacity:1"
       sodipodi:nodetypes="cc" />
    <path
       style="fill:none;fill-rule:evenodd;stroke:#000000;stroke-width:1px;stroke-linecap:butt;stroke-linejoin:miter;stroke-opacity:1"
       d="M 8.5534073,0.24627359 C 12.833902,15.790562 11.722718,28.63901 8.3312409,40.347313"
       id="path3223"
       sodipodi:nodetypes="cc" />
  </g>
</svg>
